X:1
T:Tula hem och tula vall
R:Vallåt
O:Sverige
Z:Klas Krantz, 2006
L:1/8
M:3/4
K:Gm
"Gm"d>BG2B2 | "D7"A>^F"Gm"G2z2 | D>DB2B2 | "D7"A2"Gm"G2z2 :|
w:Tu-la hem och tu-la vall, tu-la långt åt mos-sen.
w:Kål fick jag när jag kom hem, kål fick jag i på-sen.
"Gm"B>cd2B2 | "D7"c>Ac4 | "Gm"G>AB2G2 | "D7"A>^FA4 | D^FA2cB | A2"Gm"G2z2 |]
w:Mjöl-ken var båd' gul och blå, li-te ost fick jag ock-så, smö-ret smak-te jag ald-rig.

